src/assets/img/materialDesignIcon.svg

<svg width="61" height="60" viewBox="0 0 61 60" fill="none" xmlns="http://www.w3.org/2000/svg">
<g clip-path="url(#clip0_389_6064)">
<path d="M8.05747 9.7998V50.2998C3.15747 44.8998 0.157471 37.7998 0.157471 29.9998C0.157471 22.1998 3.15747 15.0998 8.05747 9.7998Z" fill="white"/>
<path d="M11.2574 14.2002L28.5574 48.9002H11.2574V14.2002Z" fill="white"/>
<path d="M30.1575 44.9996L13.1575 11.0996H47.1575L30.1575 44.9996Z" fill="white"/>
<path d="M30.1575 0C37.9575 0 45.0575 3 50.3575 7.9H9.95746C15.2575 3 22.3575 0 30.1575 0Z" fill="white"/>
<path d="M49.0574 48.9002H31.7574L49.0574 14.2002V48.9002Z" fill="white"/>
<path d="M50.3575 52.0996C45.0575 56.9996 37.9575 59.9996 30.1575 59.9996C22.3575 59.9996 15.2575 56.9996 9.95746 52.0996H50.3575Z" fill="white"/>
<path d="M52.2574 50.1998V9.7998C57.1574 15.0998 60.1574 22.1998 60.1574 29.9998C60.1574 37.7998 57.1574 44.8998 52.2574 50.1998Z" fill="white"/>
<path d="M11.2574 14.1992L28.5574 48.8992H11.2574V14.1992Z" fill="white"/>
<path d="M30.1575 44.9996L13.1575 11.0996H47.1575L30.1575 44.9996Z" fill="white"/>
<path d="M31.7574 48.8992L49.0574 14.1992V48.8992H31.7574Z" fill="white"/>
<path d="M13.1575 11.0996H47.1575L30.1575 44.9996L13.1575 11.0996Z" fill="white"/>
</g>
<defs>
<clipPath id="clip0_389_6064">
<rect width="60" height="60" fill="white" transform="translate(0.157471)"/>
</clipPath>
</defs>
</svg>

<svg width="61" height="60" fill="none" xmlns="http://www.w3.org/2000/svg"><g clip-path="url(#a)" fill="#fff"><path d="M8.057 9.8v40.5c-4.9-5.4-7.9-12.5-7.9-20.3 0-7.8 3-14.9 7.9-20.2ZM11.257 14.2l17.3 34.7h-17.3V14.2ZM30.157 45l-17-33.9h34l-17 33.9ZM30.157 0c7.8 0 14.9 3 20.2 7.9h-40.4c5.3-4.9 12.4-7.9 20.2-7.9ZM49.057 48.9h-17.3l17.3-34.7v34.7ZM50.358 52.1c-5.3 4.9-12.4 7.9-20.2 7.9-7.8 0-14.9-3-20.2-7.9h40.4ZM52.257 50.2V9.8c4.9 5.3 7.9 12.4 7.9 20.2 0 7.8-3 14.9-7.9 20.2Z"/><path d="m11.257 14.2 17.3 34.7h-17.3V14.2ZM30.157 45l-17-33.9h34l-17 33.9ZM31.757 48.9l17.3-34.7v34.7h-17.3Z"/><path d="M13.158 11.1h34l-17 33.9-17-33.9Z"/></g><defs><clipPath id="a"><path fill="#fff" transform="translate(.157)" d="M0 0h60v60H0z"/></clipPath></defs></svg>
